public/static/img/badges/Badge_Genesis.svg

<svg fill="none" height="32" viewBox="0 0 32 32" width="32" xmlns="http://www.w3.org/2000/svg" xmlns:xlink="http://www.w3.org/1999/xlink"><radialGradient id="a" cx="0" cy="0" gradientTransform="matrix(13.1776 0 0 13.4412 16.1409 19.1421)" gradientUnits="userSpaceOnUse" r="1"><stop offset=".42" stop-color="#ffffb2"/><stop offset=".48" stop-color="#fff8a0"/><stop offset=".61" stop-color="#ffe571"/><stop offset=".79" stop-color="#ffc727"/><stop offset=".88" stop-color="#ffb700"/></radialGradient><path d="m30.9217 15.0401c-.0009-.2963-.0714-.5884-.2059-.8525-.1344-.2641-.3291-.4929-.5683-.668-.2391-.175-.5161-.2914-.8085-.3398s-.592-.0273-.8748.0614c-.2828.0888-.5408.2427-.7531.4495s-.3731.4606-.4694.7409c-.0962.2803-.1252.5793-.0846.8729.0405.2936.1495.5735.3182.8172l-2.0224 2.0928-1.3216-2.752c.2485-.1792.4512-.4147.5913-.6872.1402-.2725.2139-.5743.2151-.8808.0104-.2546-.0307-.5088-.1209-.7472s-.2277-.4561-.4042-.64-.3884-.3303-.6229-.4302c-.2345-.1-.4867-.1515-.7416-.1515s-.5072.0515-.7417.1515c-.2345.0999-.4463.2463-.6228.4302s-.314.4016-.4043.64c-.0902.2384-.1313.4926-.1208.7472-.0003.2682.055.5334.1624.7791.1074.2456.2645.4663.4616.6481l-1.0496 1.7344-3.1584-5.36c.3654-.2973.6299-.7006.757-1.1543s.1106-.93559-.0472-1.37955-.4492-.82818-.8341-1.09989c-.385-.27171-.8446-.41758-1.3157-.41758-.4712 0-.9308.14587-1.3158.41758-.3849.27171-.6763.65593-.8341 1.09989s-.1743.92585-.0472 1.37955.3916.857.7571 1.1543l-3.1424 5.3472-1.0496-1.7408c.2889-.2626.4891-.6085.5729-.9899.0838-.3813.0472-.7793-.1049-1.1389-.1522-.3596-.4122-.6631-.7443-.8686-.332-.2054-.71966-.3027-1.10936-.2783-.38971.0244-.76221.1692-1.06606.4145-.30384.2452-.52402.5788-.63011.9545-.10609.3758-.09286.7753.03787 1.1432s.37251.6862.69191.9107l-1.3248 2.7552-2.0256-2.096c.19818-.2868.3145-.6223.33647-.9702.02198-.348-.05123-.6954-.21175-1.005-.16052-.3095-.4023-.5695-.69938-.752-.29709-.1825-.63828-.2807-.98694-.284-.25213.0129-.49928.0752-.72732.1835-.22804.1084-.43251.2606-.60174.4479-.16922.1874-.29989.4062-.38454.6441-.08464.2378-.12161.49-.1088.7421.01282.2522.07517.4993.1835.7274.10834.228.26052.4325.44787.6017s.4062.2999.64405.3845c.23785.0847.49005.1217.74218.1088l2.7296 9.9616h-.6752c-.27047.0043-.52828.1153-.71714.309-.18886.1936-.29343.4542-.29086.7246v1.7185c-.00126.1344.02397.2678.07427.3926.05029.1247.12466.2383.21885.3343.0942.0959.20638.1724.33014.225.12376.0527.25667.0804.39114.0816h21.27045c.2718-.0025.5316-.1127.7224-.3065.1907-.1937.2969-.4552.2952-.727v-1.7185c.0017-.2718-.1045-.5333-.2952-.727-.1908-.1938-.4506-.304-.7224-.3066h-.64l2.7328-9.9616c.2621.0198.5254-.0145.7737-.1007s.4763-.2225.6698-.4004.3484-.3936.4551-.6338c.1068-.2403.163-.4998.1654-.7627z" fill="url(#a)"/><g fill="#ffdb1b"><path d="m26.3682 1.09759c-.0695-.02345-.1429-.0327-.216-.0272-.0732.00549-.1444.02563-.2096.0592-.1317.0662-.2327.18091-.2816.32l-.8448 2.64c-.0472.14361-.0357.30004.032.4352.0319.06586.0767.12468.1316.17304.055.04835.119.08526.1884.10856.0563.02066.116.03043.176.0288.0869.009.1747-.00307.256-.0352.1305-.06685.2303-.18147.2784-.32l.848-2.64c.0266-.07218.0385-.14899.0348-.22584-.0037-.07686-.0229-.15217-.0563-.22146-.0335-.06929-.0806-.13113-.1384-.18183-.0579-.0507-.1254-.08922-.1985-.11327z"/><path d="m24.8769 5.7409c-.0694-.02345-.1429-.0327-.216-.0272s-.1444.02563-.2096.0592c-.1311.067-.2318.18142-.2816.32l-.3008.9472c-.0458.14377-.0343.29968.032.4352.0656.13296.1804.23512.32.2848.0567.01916.1162.02889.176.0288.087.00046.1727-.02042.2496-.0608.1318-.0662.2327-.18091.2816-.32l.3008-.9376c.0492-.14346.0399-.30053-.026-.43713s-.1831-.24169-.326-.29247z"/><path d="m30.9216 5.33102c-.0406-.06161-.0931-.11449-.1544-.15552-.0614-.04103-.1303-.06938-.2027-.0834-.0725-.01401-.147-.0134-.2192.00181-.0722.0152-.1406.04468-.2013.08671l-3.4912 2.4256c-.1223.08765-.2059.21923-.2334.36717-.0274.14794.0035.30075.0862.42643.043.0632.0983.11704.1627.15828.0643.04125.1363.06905.2117.08172.0351.00316.0705.00316.1056 0 .1142-.00024.2257-.0348.32-.0992l3.488-2.4256c.1166-.09021.1947-.22129.2184-.36679.0238-.1455-.0085-.29459-.0904-.41721z"/><path d="m20.9538 2.11813c-.0234-.07014-.0605-.13491-.1092-.19055-.0487-.05563-.108-.101-.1745-.13347-.0664-.03247-.1386-.05138-.2124-.05564-.0738-.00425-.1478.00624-.2175.03086-.1409.052-.2558.15728-.3198.29315s-.0722.29146-.0226.43325l1.408 4.0608c.0375.11024.1086.20597.2033.2737s.2083.10407.3247.1039c.0633.00027.1261-.01056.1856-.032.1409-.05201.2558-.15728.3198-.29315.0641-.13587.0722-.29146.0226-.43325z"/><path d="m7.43088 4.53749c.06707-.1352.07967-.29098.0352-.4352l-.848-2.64c-.04978-.13859-.15047-.25301-.2816-.32-.06518-.03358-.13644-.05371-.20955-.05921-.07311-.00549-.14659.00376-.21605.02721-.13966.04968-.25446.15184-.32.2848-.06634.13552-.0778.29143-.032.4352l.8416 2.6272c.04814.13853.14786.25315.2784.32.13311.06635.28665.07896.4288.0352.13933-.04637.25521-.14504.3232-.2752z"/><path d="m8.10866 6.1056c-.04978-.13859-.15047-.25301-.2816-.32-.06518-.03358-.13644-.05371-.20955-.05921-.07312-.00549-.14659.00376-.21605.02721-.13952.04894-.25488.14966-.32219.2813-.06732.13165-.08143.28414-.03941.4259l.32.9376c.02309.06902.05956.13281.10734.18772.04777.05491.1059.09986.17106.13228.06518.03357.13644.05371.20955.0592.07311.0055.14658-.00375.21605-.0272.06958-.02384.13372-.0613.18866-.1102.05495-.0489.09959-.10825.13134-.1746.06634-.13553.0778-.29143.032-.4352z"/><path d="m5.62548 7.60622-3.4912-2.4256c-.06065-.04203-.12909-.07151-.2013-.08671-.0722-.01521-.14672-.01582-.21917-.00181-.07244.01402-.14136.04237-.20269.0834s-.11384.09391-.15444.15552c-.08273.12568-.11361.2785-.08617.42643.02744.14794.11107.27952.23337.36717l3.488 2.4256c.09431.0644.2058.09896.32.0992.03513.00316.07047.00316.1056 0 .14213-.03577.26486-.12523.3424-.2496.08405-.12415.11699-.27593.09195-.42375-.02503-.14783-.10611-.2803-.22635-.36985z"/><path d="m12.0382 1.76933c-.0697-.02462-.1437-.03511-.2175-.03086-.0738.00426-.146.02317-.2124.05564-.0665.03247-.1258.07784-.1745.13347-.0487.05564-.0858.12041-.1092.19055l-1.40482 4.0576c-.04956.14179-.04145.29738.02259.43325.06403.13587.17893.24114.31983.29315.0595.02144.1223.03227.1856.032.1164.00017.23-.03617.3247-.1039s.1658-.16346.2033-.2737l1.4048-4.0608c.0488-.14255.0408-.29842-.0224-.4352-.0314-.06734-.0758-.12776-.1308-.17775-.0549-.05-.1192-.08856-.1892-.11345z"/><path d="m26.2815 24.0001h-14.8896c-.0849 0-.1663.0337-.2263.0937s-.0937.1414-.0937.2263.0337.1662.0937.2263c.06.06.1414.0937.2263.0937h14.72l-.6401 2.3232h-18.64315l-.64-2.3232h2.6016c.08487 0 .16626-.0337.22628-.0937.06001-.0601.09372-.1414.09372-.2263s-.03371-.1663-.09372-.2263c-.06002-.06-.14141-.0937-.22628-.0937h-2.7904l-1.952-6.976c.0288 0 .2848-.1664.32-.1824l4.8 4.8736c.03411.0349.07575.0615.12173.0779.04599.0163.0951.0219.14358.0163.04848-.0055.09505-.0221.13614-.0484.0411-.0263.07563-.0617.10095-.1034 7.19365-11.97441 3.20005-5.3088 5.58085-9.28.57.2336 1.2091.2336 1.7792 0l5.5744 9.28c.025.0419.0593.0776.1003.1042.0409.0266.0874.0435.1359.0494s.0977.0005.1439-.0155c.0461-.0161.0879-.0426.1222-.0773l4.8001-4.8832c.1024.0688.2093.1308.32.1856z"/></g><path d="m16.1404 22.1504-1.824-2.4544 1.824-2.944 1.8208 2.944z" fill="#0040ff"/><path d="m8.72283 16.0001c.41128.1094.84692.0824 1.2416-.0768l1.21597 1.9968-1.84637 3.072-2.0352-2.0608z" fill="#e4a800"/><path d="m22.323 15.9392c.3925.1542.8239.18 1.232.0736l1.424 2.9088-2.0352 2.064-1.8432-3.0656z" fill="#e4a800"/><path d="m14.499 10.2817c-.0007-.34451.1067-.68058.3072-.96076.2005-.28019.4839-.49034.8103-.6008.3263-.11047.6791-.11567 1.0085-.01487.3295.10079.619.3025.8276.57665.2087.27415.326.6069.3354.95128.0094.3444-.0896.6831-.283.9682s-.4714.5023-.7949.6209c-.3234.1187-.676.1327-1.0079.0402-.3452-.0967-.6494-.3034-.8665-.5887-.2172-.2853-.3354-.6336-.3367-.9921z" fill="#0094ff"/><path d="m23.0402 12.9407c.1789-.0016.3561.0351.5197.1078.1635.0726.3095.1795.4282.3134s.2073.2917.2598.4627c.0525.1711.0678.3514.0447.5288-.0231.1775-.084.3479-.1786.4998s-.2206.2817-.3696.3808c-.1491.099-.3176.1649-.4943.1933-.1767.0283-.3573.0185-.5299-.029-.2655-.0689-.5005-.2243-.668-.4415-.1674-.2173-.2578-.4842-.2568-.7585-.0008-.3316.1296-.65.3629-.8857.2333-.2356.5503-.3693.8819-.3719z" fill="#0040ff"/><path d="m27.7822 15.3215c-.0009-.2623.0807-.5183.2331-.7317.1525-.2134.3682-.3735.6166-.4577s.517-.0882.7678-.0114.4712.2305.6299.4393c.1587.2089.2478.4623.2546.7245s-.0689.5199-.2165.7368c-.1476.2168-.3596.3817-.6061.4715-.2465.0897-.5149.0998-.7674.0287-.2617-.0738-.4924-.2308-.6569-.4473-.1646-.2165-.2541-.4808-.2551-.7527z" fill="#0094ff"/><path d="m8.00005 14.1986c-.00238-.262.0774-.5183.22812-.7327s.36482-.3762.61223-.4628c.24741-.0865.5157-.0933.76719-.0195s.47351.2245.63501.431c.1614.2065.2541.4583.2651.7202.011.2618-.0604.5206-.204.7398-.1436.2193-.35227.388-.59671.4826-.24444.0945-.51236.1102-.76614.0446-.26929-.0655-.50863-.2198-.67935-.4382-.17071-.2183-.26282-.4878-.26145-.765z" fill="#0040ff"/><path d="m1.9971 15.3217c-.00154-.2267.05855-.4496.17386-.6448s.28151-.3555.48082-.4636c.19931-.108.42425-.1599.65077-.1501.22653.0098.44612.081.63531.206s.34087.299.43882.5035c.09796.2045.13851.4317.11731.6575-.02119.2257-.10333.4415-.23763.6241-.1343.1827-.31572.3255-.52486.413-.18951.0794-.39563.1108-.60018.0916-.20454-.0192-.40121-.0884-.57264-.2017-.17142-.1132-.31233-.2669-.41027-.4475-.09795-.1806-.14991-.3825-.15131-.588z" fill="#0094ff"/><path d="m5.48813 27.6094h21.27677c.0496 0 .0987.0097.1445.0287s.0875.0468.1225.0819c.0351.035.0629.0767.0819.1225s.0287.0949.0287.1445v1.6864c0 .0993-.0394.1945-.1096.2647s-.1655.1097-.2648.1097h-21.27997c-.09874-.0017-.19281-.0423-.26174-.113-.06893-.0708-.10712-.1659-.10626-.2646v-1.6864c.0008-.098.03963-.1918.10829-.2616.06867-.0699.16179-.1103.25971-.1128z" fill="#0094ff"/></svg>

<svg width="32" height="32" viewBox="0 0 32 32" fill="none" xmlns="http://www.w3.org/2000/svg">
<path d="M30.9217 15.0401C30.9208 14.7438 30.8503 14.4517 30.7158 14.1876C30.5814 13.9235 30.3867 13.6947 30.1475 13.5196C29.9084 13.3446 29.6314 13.2282 29.339 13.1798C29.0466 13.1314 28.747 13.1525 28.4642 13.2412C28.1814 13.33 27.9234 13.4839 27.7111 13.6907C27.4988 13.8975 27.338 14.1513 27.2417 14.4316C27.1455 14.7119 27.1165 15.0109 27.1571 15.3045C27.1976 15.5981 27.3066 15.878 27.4753 16.1217L25.4529 18.2145L24.1313 15.4625C24.3798 15.2833 24.5825 15.0478 24.7226 14.7753C24.8628 14.5028 24.9365 14.201 24.9377 13.8945C24.9481 13.6399 24.907 13.3857 24.8168 13.1473C24.7266 12.9089 24.5891 12.6912 24.4126 12.5073C24.2361 12.3234 24.0242 12.177 23.7897 12.0771C23.5552 11.9771 23.303 11.9256 23.0481 11.9256C22.7932 11.9256 22.5409 11.9771 22.3064 12.0771C22.0719 12.177 21.8601 12.3234 21.6836 12.5073C21.5071 12.6912 21.3696 12.9089 21.2793 13.1473C21.1891 13.3857 21.148 13.6399 21.1585 13.8945C21.1582 14.1627 21.2135 14.4279 21.3209 14.6736C21.4283 14.9192 21.5854 15.1399 21.7825 15.3217L20.7329 17.0561L17.5745 11.6961C17.9399 11.3988 18.2044 10.9955 18.3315 10.5418C18.4586 10.0881 18.4421 9.60621 18.2843 9.16225C18.1265 8.71829 17.8351 8.33407 17.4502 8.06236C17.0652 7.79065 16.6056 7.64478 16.1345 7.64478C15.6633 7.64478 15.2037 7.79065 14.8187 8.06236C14.4338 8.33407 14.1424 8.71829 13.9846 9.16225C13.8268 9.60621 13.8103 10.0881 13.9374 10.5418C14.0645 10.9955 14.329 11.3988 14.6945 11.6961L11.5521 17.0433L10.5025 15.3025C10.7914 15.0399 10.9916 14.694 11.0754 14.3126C11.1592 13.9313 11.1226 13.5333 10.9705 13.1737C10.8183 12.8141 10.5583 12.5106 10.2262 12.3051C9.8942 12.0997 9.50654 12.0024 9.11684 12.0268C8.72713 12.0512 8.35463 12.196 8.05078 12.4413C7.74694 12.6865 7.52676 13.0201 7.42067 13.3958C7.31458 13.7716 7.32781 14.1711 7.45854 14.539C7.58927 14.9069 7.83105 15.2252 8.15045 15.4497L6.82565 18.2049L4.80005 16.1089C4.99823 15.8221 5.11455 15.4866 5.13652 15.1387C5.1585 14.7907 5.08529 14.4433 4.92477 14.1337C4.76425 13.8242 4.52247 13.5642 4.22539 13.3817C3.9283 13.1992 3.58711 13.101 3.23845 13.0977C2.98632 13.1106 2.73917 13.1729 2.51113 13.2812C2.28309 13.3896 2.07862 13.5418 1.90939 13.7291C1.74017 13.9165 1.6095 14.1353 1.52485 14.3732C1.44021 14.611 1.40324 14.8632 1.41605 15.1153C1.42887 15.3675 1.49122 15.6146 1.59955 15.8427C1.70789 16.0707 1.86007 16.2752 2.04742 16.4444C2.23477 16.6136 2.45362 16.7443 2.69147 16.8289C2.92932 16.9136 3.18152 16.9506 3.43365 16.9377L6.16325 26.8993H5.48805C5.21758 26.9036 4.95977 27.0146 4.77091 27.2083C4.58205 27.4019 4.47748 27.6625 4.48005 27.9329V29.6514C4.47879 29.7858 4.50402 29.9192 4.55432 30.044C4.60461 30.1687 4.67898 30.2823 4.77317 30.3783C4.86737 30.4742 4.97955 30.5507 5.10331 30.6033C5.22707 30.656 5.35998 30.6837 5.49445 30.6849H26.7649C27.0367 30.6824 27.2965 30.5722 27.4873 30.3784C27.678 30.1847 27.7842 29.9232 27.7825 29.6514V27.9329C27.7842 27.6611 27.678 27.3996 27.4873 27.2059C27.2965 27.0121 27.0367 26.9019 26.7649 26.8993H26.1249L28.8577 16.9377C29.1198 16.9575 29.3831 16.9232 29.6314 16.837C29.8797 16.7508 30.1077 16.6145 30.3012 16.4366C30.4947 16.2587 30.6496 16.043 30.7563 15.8028C30.8631 15.5625 30.9193 15.303 30.9217 15.0401Z" fill="url(#paint0_radial)"/>
<path d="M26.3682 1.09759C26.2987 1.07414 26.2253 1.06489 26.1522 1.07039C26.079 1.07588 26.0078 1.09602 25.9426 1.12959C25.8109 1.19579 25.7099 1.3105 25.661 1.44959L24.8162 4.08959C24.769 4.2332 24.7805 4.38963 24.8482 4.52479C24.8801 4.59065 24.9249 4.64947 24.9798 4.69783C25.0348 4.74618 25.0988 4.78309 25.1682 4.80639C25.2245 4.82705 25.2842 4.83682 25.3442 4.83519C25.4311 4.84419 25.5189 4.83212 25.6002 4.79999C25.7307 4.73314 25.8305 4.61852 25.8786 4.47999L26.7266 1.83999C26.7532 1.76781 26.7651 1.691 26.7614 1.61415C26.7577 1.53729 26.7385 1.46198 26.7051 1.39269C26.6716 1.3234 26.6245 1.26156 26.5667 1.21086C26.5088 1.16016 26.4413 1.12164 26.3682 1.09759Z" fill="#FFDB1B"/>
<path d="M24.8769 5.7409C24.8075 5.71745 24.734 5.7082 24.6609 5.7137C24.5878 5.7192 24.5165 5.73933 24.4513 5.7729C24.3202 5.8399 24.2195 5.95432 24.1697 6.0929L23.8689 7.0401C23.8231 7.18387 23.8346 7.33978 23.9009 7.4753C23.9665 7.60826 24.0813 7.71042 24.2209 7.7601C24.2776 7.77926 24.3371 7.78899 24.3969 7.7889C24.4839 7.78936 24.5696 7.76848 24.6465 7.7281C24.7783 7.6619 24.8792 7.54719 24.9281 7.4081L25.2289 6.4705C25.2781 6.32704 25.2688 6.16997 25.2029 6.03337C25.137 5.89677 25.0198 5.79168 24.8769 5.7409Z" fill="#FFDB1B"/>
<path d="M30.9216 5.33102C30.881 5.26941 30.8285 5.21653 30.7672 5.1755C30.7058 5.13447 30.6369 5.10612 30.5645 5.0921C30.492 5.07809 30.4175 5.0787 30.3453 5.09391C30.2731 5.10911 30.2047 5.13859 30.144 5.18062L26.6528 7.60622C26.5305 7.69387 26.4469 7.82545 26.4194 7.97339C26.392 8.12133 26.4229 8.27414 26.5056 8.39982C26.5486 8.46302 26.6039 8.51686 26.6683 8.5581C26.7326 8.59935 26.8046 8.62715 26.88 8.63982C26.9151 8.64298 26.9505 8.64298 26.9856 8.63982C27.0998 8.63958 27.2113 8.60502 27.3056 8.54062L30.7936 6.11502C30.9102 6.02481 30.9883 5.89373 31.012 5.74823C31.0358 5.60273 31.0035 5.45364 30.9216 5.33102Z" fill="#FFDB1B"/>
<path d="M20.9538 2.11813C20.9304 2.04799 20.8933 1.98322 20.8446 1.92758C20.7959 1.87195 20.7366 1.82658 20.6701 1.79411C20.6037 1.76164 20.5315 1.74273 20.4577 1.73847C20.3839 1.73422 20.3099 1.74471 20.2402 1.76933C20.0993 1.82133 19.9844 1.92661 19.9204 2.06248C19.8564 2.19835 19.8482 2.35394 19.8978 2.49573L21.3058 6.55653C21.3433 6.66677 21.4144 6.7625 21.5091 6.83023C21.6038 6.89796 21.7174 6.9343 21.8338 6.93413C21.8971 6.9344 21.9599 6.92357 22.0194 6.90213C22.1603 6.85012 22.2752 6.74485 22.3392 6.60898C22.4033 6.47311 22.4114 6.31752 22.3618 6.17573L20.9538 2.11813Z" fill="#FFDB1B"/>
<path d="M7.43088 4.53749C7.49795 4.40229 7.51055 4.24651 7.46608 4.10229L6.61808 1.46229C6.5683 1.3237 6.46761 1.20928 6.33648 1.14229C6.2713 1.10871 6.20004 1.08858 6.12693 1.08308C6.05382 1.07759 5.98034 1.08684 5.91088 1.11029C5.77122 1.15997 5.65642 1.26213 5.59088 1.39509C5.52454 1.53061 5.51308 1.68652 5.55888 1.83029L6.40048 4.45749C6.44862 4.59602 6.54834 4.71064 6.67888 4.77749C6.81199 4.84384 6.96553 4.85645 7.10768 4.81269C7.24701 4.76632 7.36289 4.66765 7.43088 4.53749Z" fill="#FFDB1B"/>
<path d="M8.10866 6.1056C8.05888 5.96701 7.95819 5.85259 7.82706 5.7856C7.76188 5.75202 7.69062 5.73189 7.61751 5.72639C7.54439 5.7209 7.47092 5.73015 7.40146 5.7536C7.26194 5.80254 7.14658 5.90326 7.07927 6.0349C7.01195 6.16655 6.99784 6.31904 7.03986 6.4608L7.35986 7.3984C7.38295 7.46742 7.41942 7.53121 7.4672 7.58612C7.51497 7.64103 7.5731 7.68598 7.63826 7.7184C7.70344 7.75197 7.7747 7.77211 7.84781 7.7776C7.92092 7.7831 7.99439 7.77385 8.06386 7.7504C8.13344 7.72656 8.19758 7.6891 8.25252 7.6402C8.30747 7.5913 8.35211 7.53195 8.38386 7.4656C8.4502 7.33007 8.46166 7.17417 8.41586 7.0304L8.10866 6.1056Z" fill="#FFDB1B"/>
<path d="M5.62548 7.60622L2.13428 5.18062C2.07363 5.13859 2.00519 5.10911 1.93298 5.09391C1.86078 5.0787 1.78626 5.07809 1.71381 5.0921C1.64137 5.10612 1.57245 5.13447 1.51112 5.1755C1.44979 5.21653 1.39728 5.26941 1.35668 5.33102C1.27395 5.4567 1.24307 5.60952 1.27051 5.75745C1.29795 5.90539 1.38158 6.03697 1.50388 6.12462L4.99188 8.55022C5.08619 8.61462 5.19768 8.64918 5.31188 8.64942C5.34701 8.65258 5.38235 8.65258 5.41748 8.64942C5.55961 8.61365 5.68234 8.52419 5.75988 8.39982C5.84393 8.27567 5.87687 8.12389 5.85183 7.97607C5.8268 7.82824 5.74572 7.69577 5.62548 7.60622Z" fill="#FFDB1B"/>
<path d="M12.0382 1.76933C11.9685 1.74471 11.8945 1.73422 11.8207 1.73847C11.7469 1.74273 11.6747 1.76164 11.6083 1.79411C11.5418 1.82658 11.4825 1.87195 11.4338 1.92758C11.3851 1.98322 11.348 2.04799 11.3246 2.11813L9.91978 6.17573C9.87022 6.31752 9.87833 6.47311 9.94237 6.60898C10.0064 6.74485 10.1213 6.85012 10.2622 6.90213C10.3217 6.92357 10.3845 6.9344 10.4478 6.93413C10.5642 6.9343 10.6778 6.89796 10.7725 6.83023C10.8672 6.7625 10.9383 6.66677 10.9758 6.55653L12.3806 2.49573C12.4294 2.35318 12.4214 2.19731 12.3582 2.06053C12.3268 1.99319 12.2824 1.93277 12.2274 1.88278C12.1725 1.83278 12.1082 1.79422 12.0382 1.76933Z" fill="#FFDB1B"/>
<path d="M26.2815 24.0001H11.3919C11.307 24.0001 11.2256 24.0338 11.1656 24.0938C11.1056 24.1538 11.0719 24.2352 11.0719 24.3201C11.0719 24.405 11.1056 24.4863 11.1656 24.5464C11.2256 24.6064 11.307 24.6401 11.3919 24.6401H26.1119L25.4718 26.9633H6.82865L6.18865 24.6401H8.79025C8.87512 24.6401 8.95651 24.6064 9.01653 24.5464C9.07654 24.4863 9.11025 24.405 9.11025 24.3201C9.11025 24.2352 9.07654 24.1538 9.01653 24.0938C8.95651 24.0338 8.87512 24.0001 8.79025 24.0001H5.99985L4.04785 17.0241C4.07665 17.0241 4.33265 16.8577 4.36785 16.8417L9.16785 21.7153C9.20196 21.7502 9.2436 21.7768 9.28958 21.7932C9.33557 21.8095 9.38468 21.8151 9.43316 21.8095C9.48164 21.804 9.52821 21.7874 9.5693 21.7611C9.6104 21.7348 9.64493 21.6994 9.67025 21.6577C16.8639 9.68329 12.8703 16.3489 15.2511 12.3777C15.8211 12.6113 16.4602 12.6113 17.0303 12.3777L22.6047 21.6577C22.6297 21.6996 22.664 21.7353 22.705 21.7619C22.7459 21.7885 22.7924 21.8054 22.8409 21.8113C22.8894 21.8172 22.9386 21.8118 22.9848 21.7958C23.0309 21.7797 23.0727 21.7532 23.107 21.7185L27.9071 16.8353C28.0095 16.9041 28.1164 16.9661 28.2271 17.0209L26.2815 24.0001Z" fill="#FFDB1B"/>
<path d="M16.1404 22.1504L14.3164 19.696L16.1404 16.752L17.9612 19.696L16.1404 22.1504Z" fill="#0040FF"/>
<path d="M8.72283 16.0001C9.13411 16.1095 9.56975 16.0825 9.96443 15.9233L11.1804 17.9201L9.33403 20.9921L7.29883 18.9313L8.72283 16.0001Z" fill="#E4A800"/>
<path d="M22.323 15.9392C22.7155 16.0934 23.1469 16.1192 23.555 16.0128L24.979 18.9216L22.9438 20.9856L21.1006 17.92L22.323 15.9392Z" fill="#E4A800"/>
<path d="M14.499 10.2817C14.4983 9.93719 14.6057 9.60112 14.8062 9.32094C15.0067 9.04075 15.2901 8.8306 15.6165 8.72014C15.9428 8.60967 16.2956 8.60447 16.625 8.70527C16.9545 8.80606 17.244 9.00777 17.4526 9.28192C17.6613 9.55607 17.7786 9.88882 17.788 10.2332C17.7974 10.5776 17.6984 10.9163 17.505 11.2014C17.3116 11.4865 17.0336 11.7037 16.7101 11.8223C16.3867 11.941 16.0341 11.955 15.7022 11.8625C15.357 11.7658 15.0528 11.5591 14.8357 11.2738C14.6185 10.9885 14.5003 10.6402 14.499 10.2817Z" fill="#0094FF"/>
<path d="M23.0402 12.9407C23.2191 12.9391 23.3963 12.9758 23.5599 13.0485C23.7234 13.1211 23.8694 13.228 23.9881 13.3619C24.1068 13.4958 24.1954 13.6536 24.2479 13.8246C24.3004 13.9957 24.3157 14.176 24.2926 14.3534C24.2695 14.5309 24.2086 14.7013 24.114 14.8532C24.0194 15.0051 23.8934 15.1349 23.7444 15.234C23.5953 15.333 23.4268 15.3989 23.2501 15.4273C23.0734 15.4556 22.8928 15.4458 22.7202 15.3983C22.4547 15.3294 22.2197 15.174 22.0522 14.9568C21.8848 14.7395 21.7944 14.4726 21.7954 14.1983C21.7946 13.8667 21.925 13.5483 22.1583 13.3126C22.3916 13.077 22.7086 12.9433 23.0402 12.9407Z" fill="#0040FF"/>
<path d="M27.7822 15.3215C27.7813 15.0592 27.8629 14.8032 28.0153 14.5898C28.1678 14.3764 28.3835 14.2163 28.6319 14.1321C28.8803 14.0479 29.1489 14.0439 29.3997 14.1207C29.6505 14.1975 29.8709 14.3512 30.0296 14.56C30.1883 14.7689 30.2774 15.0223 30.2842 15.2845C30.291 15.5467 30.2153 15.8044 30.0677 16.0213C29.9201 16.2381 29.7081 16.403 29.4616 16.4928C29.2151 16.5825 28.9467 16.5926 28.6942 16.5215C28.4325 16.4477 28.2018 16.2907 28.0373 16.0742C27.8727 15.8577 27.7832 15.5934 27.7822 15.3215Z" fill="#0094FF"/>
<path d="M8.00005 14.1986C7.99767 13.9366 8.07745 13.6803 8.22817 13.4659C8.37889 13.2515 8.59299 13.0897 8.8404 13.0031C9.08781 12.9166 9.3561 12.9098 9.60759 12.9836C9.85908 13.0574 10.0811 13.2081 10.2426 13.4146C10.404 13.6211 10.4967 13.8729 10.5077 14.1348C10.5187 14.3966 10.4473 14.6554 10.3037 14.8746C10.1601 15.0939 9.95143 15.2626 9.70699 15.3572C9.46255 15.4517 9.19463 15.4674 8.94085 15.4018C8.67156 15.3363 8.43222 15.182 8.2615 14.9636C8.09079 14.7453 7.99868 14.4758 8.00005 14.1986Z" fill="#0040FF"/>
<path d="M1.9971 15.3217C1.99556 15.095 2.05565 14.8721 2.17096 14.6769C2.28627 14.4817 2.45247 14.3214 2.65178 14.2133C2.85109 14.1053 3.07603 14.0534 3.30255 14.0632C3.52908 14.073 3.74867 14.1442 3.93786 14.2692C4.12705 14.3942 4.27873 14.5682 4.37668 14.7727C4.47464 14.9772 4.51519 15.2044 4.49399 15.4302C4.4728 15.6559 4.39066 15.8717 4.25636 16.0543C4.12206 16.237 3.94064 16.3798 3.7315 16.4673C3.54199 16.5467 3.33587 16.5781 3.13132 16.5589C2.92678 16.5397 2.73011 16.4705 2.55868 16.3572C2.38726 16.244 2.24635 16.0903 2.14841 15.9097C2.05046 15.7291 1.9985 15.5272 1.9971 15.3217Z" fill="#0094FF"/>
<path d="M5.48813 27.6094H26.7649C26.8145 27.6094 26.8636 27.6191 26.9094 27.6381C26.9552 27.6571 26.9969 27.6849 27.0319 27.72C27.067 27.755 27.0948 27.7967 27.1138 27.8425C27.1328 27.8883 27.1425 27.9374 27.1425 27.987V29.6734C27.1425 29.7727 27.1031 29.8679 27.0329 29.9381C26.9627 30.0083 26.8674 30.0478 26.7681 30.0478H5.48813C5.38939 30.0461 5.29532 30.0055 5.22639 29.9348C5.15746 29.864 5.11927 29.7689 5.12013 29.6702V27.9838C5.12093 27.8858 5.15976 27.792 5.22842 27.7222C5.29709 27.6523 5.39021 27.6119 5.48813 27.6094Z" fill="#0094FF"/>
<defs>
<radialGradient id="paint0_radial" cx="0" cy="0" r="1" gradientUnits="userSpaceOnUse" gradientTransform="translate(16.1409 19.1421) scale(13.1776 13.4412)">
<stop offset="0.42" stop-color="#FFFFB2"/>
<stop offset="0.48" stop-color="#FFF8A0"/>
<stop offset="0.61" stop-color="#FFE571"/>
<stop offset="0.79" stop-color="#FFC727"/>
<stop offset="0.88" stop-color="#FFB700"/>
</radialGradient>
</defs>
</svg>
